; generated by SuperSlicer 2.4 on 2023-10-22 at 03:35:52 UTC

; 

; external perimeters extrusion width = 0.42mm
; perimeters extrusion width = 0.46mm
; infill extrusion width = 0.44mm
; solid infill extrusion width = 0.46mm
; top infill extrusion width = 0.44mm
; first layer extrusion width = 0.56mm

; object:{"name":"Back Cover","id":"Back Cover.stl id:0 copy 0","object_center":[115.000000,110.000000,0.000000],"boundingbox_center":[115.000000,110.000000,3.250000],"boundingbox_size":[70.000000,32.500000,6.500000]}
; Total objects to print: 1
M486 T1
; plater:{"center":[115.000000,110.000000,0.000000],"boundingbox_center":[115.000000,110.000000,3.250000],"boundingbox_size":[70.000000,32.500000,6.500000]}

;TYPE:Custom
G90 ; use absolute coordinates
M83 ; extruder relative mode
M140 S60 ; set final bed temp
M104 S150 ; set temporary nozzle temp to prevent oozing during homing and auto bed leveling
G4 S10 ; allow partial nozzle warmup
G28 ; home all axis
M420 S1 ; Load ABL mesh
G1 Z50 F240
G1 X2 Y10 F3000
M104 S205 ; set final nozzle temp
M190 S60 ; wait for bed temp to stabilize
M109 S205 ; wait for nozzle temp to stabilize
G1 Z0.28 F240
G92 E0
G1 Y200 E10 F1500 ; prime the nozzle
G1 X2.3 F5000
G92 E0
G1 Y10 E10 F1200 ; prime the nozzle
G92 E0
M107
G21 ; set units to millimeters
G90 ; use absolute coordinates
M82 ; use absolute distances for extrusion
G92 E0
; Filament gcode
;_TOOLCHANGE 0
M107
;LAYER_CHANGE
;Z:0.2
;HEIGHT:0.2
;BEFORE_LAYER_CHANGE
;0.2


G1 E-2 F3600
G1 Z0.2 F30000
;AFTER_LAYER_CHANGE
;0.2
G92 E0
M204 P2000 T2000
G1 X74.417 Y87.829
G1 E2 F2400
;TYPE:Skirt
;WIDTH:0.48
G1 F1200
G1 X74.248 Y87.971 E2.00803
G1 X73.725 Y88.535 E2.03596
G1 X72.58 Y90.111 E2.10677
G1 X72.064 Y91.21 E2.15091
G1 X71.553 Y93.219 E2.22625
G1 X71.454 Y94.012 E2.25528
G1 X71.454 Y125.809 E3.41087
G1 X71.942 Y128.668 E3.51631
G1 X72.648 Y130.145 E3.57579
G1 X74.221 Y132.002 E3.66425
G1 X74.785 Y132.525 E3.69218
G1 X76.361 Y133.67 E3.76298
G1 X77.46 Y134.186 E3.80713
G1 X79.469 Y134.697 E3.88246
G1 X80.262 Y134.796 E3.9115
G1 X149.738 Y134.796 E6.43649
G1 X150.531 Y134.697 E6.46552
G1 X152.54 Y134.186 E6.54086
G1 X153.639 Y133.67 E6.585
G1 X155.16 Y132.565 E6.65331
G1 X155.675 Y132.098 E6.67857
G1 X157.216 Y130.361 E6.76298
G1 X157.951 Y128.925 E6.82161
G1 X158.469 Y126.6 E6.90818
G1 X158.546 Y125.9 E6.93378
G1 X158.546 Y94.1 E8.08947
G1 X158.469 Y93.4 E8.11507
G1 X157.951 Y91.075 E8.20164
G1 X157.216 Y89.639 E8.26027
G1 X155.675 Y87.902 E8.34468
G1 X155.16 Y87.435 E8.36994
G1 X153.791 Y86.44 E8.43146
G1 X152.881 Y85.978 E8.46853
G1 X150.985 Y85.37 E8.54088
G1 X150.003 Y85.217 E8.57701
G1 X80.443 Y85.204 E11.10507
G1 X77.582 Y85.692 E11.21055
G1 X76.105 Y86.398 E11.27002
G1 X74.462 Y87.79 E11.34827
G92 E0
G1 E-1.4 F3600
;WIPE_START
G1 F24000
G1 X74.248 Y87.971 E-1.44003
G1 X73.725 Y88.535 E-1.54954
G1 X72.58 Y90.111 E-1.82717
G1 X72.154 Y91.018 E-1.97
;WIPE_END
G1 E-2 F3600
G1 X77.045 Y90.54 F30000
G1 E0 F2400
;WIDTH:0.564
G1 F1200
G1 X77.418 Y90.19 E0.02221
G1 X78.464 Y89.523 E0.07592
G1 X79.98 Y89.047 E0.14479
G1 X81.455 Y88.951 E0.20881
G1 X149.275 Y88.964 E3.14733
G1 X150.333 Y89.112 E3.19363
G1 X151.343 Y89.448 E3.23973
G1 X152.295 Y89.983 E3.28703
G1 X153.112 Y90.672 E3.33334
G1 X153.798 Y91.498 E3.37987
G1 X154.22 Y92.219 E3.41608
G1 X154.626 Y93.354 E3.46828
G1 X154.799 Y94.542 E3.52033
G1 X154.788 Y125.575 E4.86489
G1 X154.674 Y126.413 E4.90158
G1 X154.457 Y127.212 E4.93741
G1 X154.139 Y127.946 E4.9721
G1 X153.713 Y128.64 E5.00738
G1 X152.677 Y129.727 E5.07243
G1 X151.539 Y130.461 E5.13113
G1 X150.333 Y130.884 E5.18646
G1 X149.174 Y131.049 E5.23722
G1 X80.838 Y131.049 E8.19807
G1 X79.985 Y130.952 E8.23526
G1 X79.131 Y130.737 E8.27339
G1 X77.693 Y130.013 E8.34318
G1 X77.01 Y129.45 E8.3815
G1 X76.397 Y128.782 E8.42081
G1 X75.717 Y127.637 E8.47852
G1 X75.375 Y126.645 E8.52398
G1 X75.201 Y125.452 E8.57623
G1 X75.208 Y94.47 E9.91861
G1 X75.296 Y93.746 E9.95018
G1 X75.467 Y93.027 E9.9822
G1 X76.132 Y91.598 E10.05051
G1 X76.719 Y90.846 E10.09186
G1 X77.001 Y90.581 E10.1086
G1 X77.355 Y90.961 F30000
G1 F1200
G1 X77.756 Y90.587 E10.13235
G1 X78.713 Y89.982 E10.18141
G1 X80.104 Y89.555 E10.24446
G1 X81.463 Y89.472 E10.30344
G1 X149.257 Y89.485 E13.24082
G1 X150.236 Y89.624 E13.28369
G1 X151.153 Y89.934 E13.32562
G1 X151.979 Y90.398 E13.36666
G1 X152.726 Y91.023 E13.40887
G1 X153.384 Y91.814 E13.45345
G1 X153.738 Y92.419 E13.48382
G1 X154.114 Y93.456 E13.5316
G1 X154.278 Y94.561 E13.58002
G1 X154.269 Y125.523 E14.92151
G1 X154.166 Y126.294 E14.95522
G1 X153.96 Y127.057 E14.98948
G1 X153.669 Y127.721 E15.02087
G1 X153.284 Y128.342 E15.05255
G1 X152.323 Y129.344 E15.1127
G1 X151.285 Y130.005 E15.16605
G1 X150.188 Y130.383 E15.21631
G1 X149.155 Y130.528 E15.26147
G1 X80.853 Y130.528 E18.22088
G1 X80.062 Y130.436 E18.25536
G1 X79.287 Y130.239 E18.29001
G1 X78.002 Y129.593 E18.35235
G1 X77.356 Y129.06 E18.38861
G1 X76.8 Y128.451 E18.42436
G1 X76.179 Y127.395 E18.47741
G1 X75.887 Y126.545 E18.51638
G1 X75.722 Y125.433 E18.5651
G1 X75.728 Y94.516 E19.90465
G1 X75.806 Y93.852 E19.93362
G1 X75.968 Y93.173 E19.96384
G1 X76.561 Y91.895 E20.0249
G1 X77.117 Y91.183 E20.06407
G1 X77.311 Y91.002 E20.07555
G1 X77.666 Y91.383 F30000
G1 F1200
G1 X78.093 Y90.985 E20.10082
G1 X78.96 Y90.442 E20.14515
G1 X80.224 Y90.063 E20.20233
G1 X81.47 Y89.994 E20.25638
G1 X149.238 Y90.006 E23.19264
G1 X150.137 Y90.136 E23.23202
G1 X150.961 Y90.419 E23.26975
G1 X151.701 Y90.839 E23.30661
G1 X152.372 Y91.406 E23.34468
G1 X152.969 Y92.13 E23.38531
G1 X153.257 Y92.621 E23.41001
G1 X153.603 Y93.56 E23.45335
G1 X153.757 Y94.581 E23.49808
G1 X153.751 Y125.472 E24.83653
G1 X153.659 Y126.176 E24.86729
G1 X153.474 Y126.867 E24.89831
G1 X153.216 Y127.462 E24.9264
G1 X152.856 Y128.044 E24.95604
G1 X151.97 Y128.959 E25.01121
G1 X151.033 Y129.548 E25.05917
G1 X150.044 Y129.881 E25.10438
G1 X149.138 Y130.007 E25.14405
G1 X80.868 Y130.007 E28.10204
G1 X80.174 Y129.927 E28.13231
G1 X79.443 Y129.741 E28.16498
G1 X78.31 Y129.172 E28.21992
G1 X77.728 Y128.695 E28.2525
G1 X77.203 Y128.12 E28.28623
G1 X76.642 Y127.156 E28.33457
G1 X76.399 Y126.444 E28.36716
G1 X76.243 Y125.413 E28.41233
G1 X76.247 Y94.562 E29.74904
G1 X76.322 Y93.929 E29.77668
G1 X76.468 Y93.32 E29.8038
G1 X76.991 Y92.191 E29.85771
G1 X77.488 Y91.549 E29.89288
G1 X77.623 Y91.424 E29.90085
G1 X77.974 Y91.805 F30000
G1 F1200
G1 X78.429 Y91.385 E29.92764
G1 X79.205 Y90.904 E29.9672
G1 X80.341 Y90.571 E30.01851
G1 X81.476 Y90.515 E30.06775
G1 X149.219 Y90.527 E33.00292
G1 X149.993 Y90.638 E33.0368
G1 X150.727 Y90.885 E33.07036
G1 X151.385 Y91.255 E33.10305
G1 X151.985 Y91.756 E33.13694
G1 X152.553 Y92.445 E33.17563
G1 X152.777 Y92.825 E33.19473
G1 X153.092 Y93.665 E33.23361
G1 X153.235 Y94.6 E33.2746
G1 X153.232 Y125.422 E34.61005
G1 X153.15 Y126.06 E34.63789
G1 X152.988 Y126.679 E34.66562
G1 X152.746 Y127.237 E34.692
G1 X152.429 Y127.744 E34.71788
G1 X151.62 Y128.572 E34.76805
G1 X150.785 Y129.089 E34.81058
G1 X149.904 Y129.379 E34.85077
G1 X149.12 Y129.485 E34.88506
G1 X80.883 Y129.485 E37.84163
G1 X80.252 Y129.411 E37.86916
G1 X79.599 Y129.243 E37.89834
G1 X78.618 Y128.75 E37.94594
G1 X78.074 Y128.304 E37.97644
G1 X77.608 Y127.791 E38.00645
G1 X77.107 Y126.918 E38.05008
G1 X76.91 Y126.342 E38.07643
G1 X76.765 Y125.393 E38.11802
G1 X76.766 Y94.607 E39.45193
G1 X76.832 Y94.035 E39.47687
G1 X76.969 Y93.467 E39.5022
G1 X77.421 Y92.487 E39.54896
G1 X77.887 Y91.886 E39.58192
G1 X77.93 Y91.845 E39.58449
G1 X78.284 Y92.228 F30000
G1 F1200
G1 X78.763 Y91.785 E39.61277
G1 X79.446 Y91.367 E39.64747
G1 X80.454 Y91.081 E39.69285
G1 X81.482 Y91.036 E39.73742
G1 X149.2 Y91.048 E42.67152
G1 X149.894 Y91.15 E42.7019
G1 X150.535 Y91.37 E42.73126
G1 X151.107 Y91.696 E42.75977
G1 X151.631 Y92.138 E42.7895
G1 X152.137 Y92.759 E42.82422
G1 X152.298 Y93.032 E42.83792
G1 X152.581 Y93.773 E42.87231
G1 X152.714 Y94.621 E42.90949
G1 X152.713 Y125.374 E44.24197
G1 X152.642 Y125.944 E44.26686
G1 X152.489 Y126.526 E44.29294
G1 X152.277 Y127.01 E44.31583
G1 X152.004 Y127.442 E44.33795
G1 X151.271 Y128.183 E44.3831
G1 X150.541 Y128.627 E44.42016
G1 X149.767 Y128.875 E44.45536
G1 X149.103 Y128.964 E44.4844
G1 X80.899 Y128.964 E47.43954
G1 X80.332 Y128.896 E47.46428
G1 X79.758 Y128.746 E47.48999
G1 X78.924 Y128.328 E47.53038
G1 X78.446 Y127.94 E47.55708
G1 X78.014 Y127.462 E47.58498
G1 X77.572 Y126.682 E47.62381
G1 X77.421 Y126.239 E47.64409
G1 X77.286 Y125.373 E47.68208
G1 X77.286 Y94.651 E49.01321
G1 X77.343 Y94.141 E49.03543
G1 X77.47 Y93.613 E49.05896
G1 X77.852 Y92.781 E49.09866
G1 X78.243 Y92.271 E49.12647
G1 X78.656 Y92.588 F30000
G1 F1200
G1 X79.096 Y92.187 E49.15227
G1 X79.685 Y91.831 E49.18207
G1 X80.563 Y91.591 E49.2215
G1 X81.486 Y91.557 E49.26156
G1 X149.181 Y91.569 E52.19464
G1 X149.75 Y91.651 E52.21953
G1 X150.301 Y91.837 E52.24473
G1 X150.792 Y92.111 E52.26908
G1 X151.243 Y92.487 E52.29453
G1 X151.721 Y93.074 E52.32732
G1 X151.82 Y93.241 E52.33575
G1 X152.071 Y93.883 E52.36563
G1 X152.193 Y94.642 E52.3989
G1 X152.193 Y125.327 E53.72846
G1 X152.133 Y125.831 E53.75044
G1 X152.002 Y126.338 E53.77314
G1 X151.825 Y126.749 E53.7925
G1 X151.579 Y127.139 E53.81249
G1 X150.926 Y127.791 E53.85249
G1 X150.3 Y128.164 E53.88404
G1 X149.634 Y128.371 E53.91429
G1 X149.086 Y128.443 E53.93824
G1 X80.915 Y128.443 E56.89194
G1 X80.413 Y128.381 E56.91382
G1 X79.917 Y128.249 E56.93608
G1 X79.231 Y127.906 E56.96932
G1 X78.791 Y127.548 E56.9939
G1 X78.421 Y127.136 E57.01789
G1 X78.039 Y126.45 E57.05192
G1 X77.932 Y126.135 E57.06631
G1 X77.807 Y125.352 E57.10066
G1 X77.807 Y94.666 E58.43024
G1 X77.859 Y94.217 E58.44981
G1 X77.97 Y93.761 E58.47016
G1 X78.284 Y93.075 E58.50286
G1 X78.62 Y92.636 E58.5268
G1 X79.026 Y92.957 F30000
G1 F1200
G1 X79.428 Y92.59 E58.5504
G1 X79.919 Y92.298 E58.57516
G1 X80.666 Y92.103 E58.6086
G1 X81.49 Y92.078 E58.64434
G1 X149.162 Y92.09 E61.57641
G1 X149.649 Y92.163 E61.59776
G1 X150.109 Y92.322 E61.61884
G1 X150.479 Y92.529 E61.63723
G1 X150.856 Y92.837 E61.65828
G1 X151.305 Y93.388 E61.68911
G1 X151.344 Y93.454 E61.69242
G1 X151.562 Y93.996 E61.71775
G1 X151.672 Y94.663 E61.74702
G1 X151.672 Y125.312 E63.07499
G1 X151.624 Y125.718 E63.09271
G1 X151.503 Y126.189 E63.11377
G1 X151.374 Y126.487 E63.12786
G1 X151.154 Y126.835 E63.14567
G1 X150.584 Y127.397 E63.18038
G1 X150.065 Y127.698 E63.20634
G1 X149.504 Y127.866 E63.23172
G1 X149.069 Y127.922 E63.25074
G1 X80.931 Y127.922 E66.20303
G1 X80.53 Y127.873 E66.22053
G1 X80.076 Y127.753 E66.24085
G1 X79.536 Y127.482 E66.26706
G1 X79.164 Y127.184 E66.28768
G1 X78.829 Y126.81 E66.30943
G1 X78.508 Y126.22 E66.33855
G1 X78.443 Y126.029 E66.34728
G1 X78.328 Y125.331 E66.37794
G1 X78.328 Y94.681 E67.70593
G1 X78.374 Y94.295 E67.72278
G1 X78.47 Y93.91 E67.74
G1 X78.717 Y93.366 E67.76589
G1 X78.989 Y93.005 E67.78547
G1 X79.405 Y93.319 F30000
G1 F1200
G1 X79.426 Y93.291 E67.78699
G1 X79.756 Y92.995 E67.80617
G1 X80.149 Y92.767 E67.82585
G1 X80.763 Y92.616 E67.85328
G1 X81.493 Y92.599 E67.88492
G1 X149.143 Y92.611 E70.81604
G1 X149.505 Y92.664 E70.83192
G1 X149.879 Y92.79 E70.84898
G1 X150.172 Y92.95 E70.86346
G1 X150.469 Y93.188 E70.87995
G1 X150.877 Y93.688 E70.90792
G1 X151.053 Y94.113 E70.92785
G1 X151.151 Y94.685 E70.953
G1 X151.151 Y125.297 E72.27934
G1 X151.115 Y125.605 E72.2928
G1 X151.003 Y126.04 E72.31222
G1 X150.923 Y126.226 E72.32103
G1 X150.73 Y126.53 E72.33662
G1 X150.245 Y126.999 E72.36585
G1 X149.837 Y127.229 E72.38616
G1 X149.38 Y127.36 E72.40675
G1 X149.052 Y127.401 E72.42106
G1 X80.947 Y127.401 E75.37191
G1 X80.614 Y127.358 E75.38647
G1 X80.238 Y127.256 E75.40336
G1 X79.837 Y127.056 E75.42275
G1 X79.537 Y126.819 E75.43932
G1 X79.238 Y126.486 E75.45872
G1 X78.978 Y125.995 E75.4828
G1 X78.953 Y125.922 E75.48614
G1 X78.849 Y125.309 E75.51308
G1 X78.849 Y94.698 E76.83941
G1 X78.889 Y94.376 E76.85345
G1 X78.969 Y94.06 E76.86759
G1 X79.15 Y93.656 E76.88676
G1 X79.369 Y93.367 E76.90247
G1 X79.785 Y93.673 F30000
G1 F1200
G1 X80.082 Y93.402 E76.91991
G1 X80.371 Y93.24 E76.93426
G1 X80.853 Y93.13 E76.95567
G1 X81.495 Y93.12 E76.9835
G1 X149.124 Y93.132 E79.91373
G1 X149.366 Y93.167 E79.92432
G1 X149.654 Y93.26 E79.93741
G1 X149.87 Y93.376 E79.94807
G1 X150.089 Y93.545 E79.96004
G1 X150.414 Y93.93 E79.98185
G1 X150.545 Y94.234 E79.99622
G1 X150.63 Y94.708 E80.01708
G1 X150.63 Y125.282 E81.34178
G1 X150.606 Y125.493 E81.35099
G1 X150.504 Y125.89 E81.36875
G1 X150.471 Y125.965 E81.37229
G1 X150.307 Y126.224 E81.38558
G1 X149.913 Y126.597 E81.40909
G1 X149.617 Y126.755 E81.42365
G1 X149.261 Y126.852 E81.43961
G1 X149.036 Y126.88 E81.44943
G1 X80.964 Y126.88 E84.39887
G1 X80.733 Y126.851 E84.40896
G1 X80.399 Y126.76 E84.42395
G1 X80.136 Y126.628 E84.4367
G1 X79.909 Y126.454 E84.4491
G1 X79.649 Y126.163 E84.466
G1 X79.46 Y125.793 E84.48401
G1 X79.37 Y125.286 E84.50631
G1 X79.37 Y94.714 E85.83095
G1 X79.398 Y94.489 E85.84078
G1 X79.469 Y94.209 E85.85327
G1 X79.587 Y93.942 E85.86592
G1 X79.749 Y93.722 E85.87779
G1 X80.164 Y94.029 F30000
G1 F1200
G1 X80.407 Y93.811 E85.89195
G1 X80.585 Y93.717 E85.90066
G1 X80.887 Y93.65 E85.91408
G1 X81.497 Y93.641 E85.94052
G1 X149.104 Y93.653 E88.86979
G1 X149.264 Y93.678 E88.87679
G1 X149.466 Y93.747 E88.88603
G1 X149.575 Y93.806 E88.89143
G1 X149.717 Y93.911 E88.89906
G1 X149.957 Y94.182 E88.91474
G1 X150.039 Y94.362 E88.92332
G1 X150.109 Y94.732 E88.93966
G1 X150.109 Y125.268 E90.26268
G1 X150.096 Y125.381 E90.26763
G1 X150.009 Y125.721 E90.28283
G1 X149.886 Y125.916 E90.29285
G1 X149.588 Y126.187 E90.31028
G1 X149.409 Y126.277 E90.31895
G1 X149.149 Y126.343 E90.33061
G1 X149.02 Y126.359 E90.33622
G1 X80.98 Y126.359 E93.28425
G1 X80.851 Y126.343 E93.28987
G1 X80.561 Y126.264 E93.3029
G1 X80.429 Y126.197 E93.30934
G1 X80.279 Y126.086 E93.31739
G1 X80.061 Y125.843 E93.33155
G1 X79.946 Y125.602 E93.34313
G1 X79.891 Y125.265 E93.35791
G1 X79.891 Y94.73 E94.68093
G1 X79.907 Y94.601 E94.68655
G1 X79.969 Y94.358 E94.69745
G1 X80.028 Y94.221 E94.70388
G1 X80.129 Y94.078 E94.71147
G1 X80.549 Y94.383 F30000
G1 F1200
G1 X80.578 Y94.35 E94.71339
G1 X80.718 Y94.23 E94.72138
G1 X80.779 Y94.201 E94.7243
G1 X80.973 Y94.164 E94.73284
G1 X80.997 Y94.162 E94.73391
G1 X81.497 Y94.162 E94.75557
G1 X149.084 Y94.174 E97.68396
G1 X149.124 Y94.181 E97.68572
G1 X149.249 Y94.221 E97.6914
G1 X149.286 Y94.24 E97.6932
G1 X149.377 Y94.306 E97.6981
G1 X149.398 Y94.325 E97.69932
G1 X149.508 Y94.448 E97.70647
G1 X149.538 Y94.508 E97.70935
G1 X149.585 Y94.718 E97.7187
G1 X149.588 Y94.747 E97.71994
G1 X149.588 Y125.253 E99.04173
G1 X149.585 Y125.282 E99.04297
G1 X149.537 Y125.498 E99.05257
G1 X149.498 Y125.565 E99.05593
G1 X149.307 Y125.747 E99.06736
G1 X149.249 Y125.78 E99.07027
G1 X149.036 Y125.834 E99.07977
G1 X149.004 Y125.838 E99.08118
G1 X80.996 Y125.838 E102.0278
G1 X80.964 Y125.834 E102.02921
G1 X80.76 Y125.782 E102.03833
G1 X80.715 Y125.761 E102.04048
G1 X80.623 Y125.694 E102.04544
G1 X80.6 Y125.672 E102.04679
G1 X80.48 Y125.532 E102.05478
G1 X80.451 Y125.471 E102.0577
G1 X80.414 Y125.277 E102.06624
G1 X80.412 Y125.253 E102.06731
G1 X80.412 Y94.746 E103.38909
G1 X80.416 Y94.714 E103.3905
G1 X80.468 Y94.51 E103.39963
G1 X80.489 Y94.465 E103.40178
G1 X80.513 Y94.432 E103.40356
; printing object Back Cover.stl id:0 copy 0
M486 S0
G1 X81.476 Y95.226 F30000
;TYPE:Internal perimeter
G1 F9000
G1 X148.524 Y95.238 E106.30862
G1 X148.513 Y124.774 E107.58837
G1 X81.476 Y124.774 E110.49297
G1 X81.476 Y95.286 E111.77064
G1 X80.969 Y94.742 F30000
;TYPE:External perimeter
G1 F9000
G1 X81.036 Y94.705 E111.77399
G1 X81.497 Y94.705 E111.79396
G1 X149.008 Y94.717 E114.71907
G1 X149.045 Y94.792 E114.7227
G1 X149.034 Y125.258 E116.04274
G1 X148.952 Y125.295 E116.04664
G1 X81.048 Y125.295 E118.9888
G1 X80.992 Y125.281 E118.99127
G1 X80.955 Y125.214 E118.99462
G1 X80.955 Y94.801 E120.31236
;WIPE_START
G1 X81.362 Y94.815 F30000
;WIPE_END
G92 E0
G1 E-1.4 F3600
;WIPE_START
G1 F24000
G1 X85.362 Y94.821 E-1.97
;WIPE_END
G1 E-2 F3600
G1 X147.314 Y95.394 F30000
G1 E0 F2400
;TYPE:Solid infill
;WIDTH:0.56223
G1 F3600
G1 X148.143 Y96.223 E0.05065
G1 X148.143 Y96.96 E0.08246
