;FLAVOR:Marlin
;TIME:6973
;Filament used: 1.68561m
;Layer height: 0.2
;MINX:61.109
;MINY:61.112
;MINZ:0.2
;MAXX:158.891
;MAXY:158.888
;MAXZ:85.107
;Generated with Cura_SteamEngine 4.13.1
M140 S60
M105
M190 S60
M104 S225
M105
M109 S225
M82 ;absolute extrusion mode
; Script based on an original created by tjjfvi (https://github.com/tjjfvi)
; An up-to-date version of the tjjfvi's original script can be found
; here:  https://csi.t6.fyi/
; Note - This script will not work in Cura V4.2 and above!
; max_feedrate_z_override = {max_feedrate_z_override}
; retraction_amount = 6
; retraction_hop = 0.2
; retraction_hop_enabled = False
; retraction_prime_speed = 45
; retraction_retract_speed = 45
; retraction_speed = 45
; speed_travel = 150.0
; retraction_enable = True
; layer_height = 0.2
; smooth_spiralized_contours = True

; Ender 3 Custom Start G-code
G92 E0 ; Reset Extruder
G28 ; Home all axes
M420 S1 ;Load mesh
G1 Z2.0 F3000 ; Move Z Axis up little to prevent scratching of Heat Bed
G1 X0.1 Y20 Z0.3 F5000.0 ; Move to start position
G1 X0.1 Y200.0 Z0.3 F1500.0 E15 ; Draw the first line
G1 X0.4 Y200.0 Z0.3 F5000.0 ; Move to side a little
G1 X0.4 Y20 Z0.3 F1500.0 E30 ; Draw the second line
G92 E0 ; Reset Extruder
G1 Z2.0 F3000 ; Move Z Axis up little to prevent scratching of Heat Bed
G1 X5 Y20 Z0.3 F5000.0 ; Move over to prevent blob squish
G92 E0
G92 E0
G1 F2700 E-6
;LAYER_COUNT:425
;LAYER:0
M107
M204 S500
M205 X8 Y8
G0 F7500 X75.284 Y75.578 Z0.2
;TYPE:SKIRT
G1 F2700 E0
G1 F1500 X75.939 Y74.927 E0.02188
G1 X76.126 Y74.745 E0.02807
G1 X76.444 Y74.446 E0.03841
G1 X77.042 Y73.892 E0.05773
G1 X77.694 Y73.304 E0.07854
G1 X77.899 Y73.123 E0.08502
G1 X78.264 Y72.811 E0.0964
G1 X78.914 Y72.268 E0.11647
G1 X79.556 Y71.744 E0.13611
G1 X79.78 Y71.566 E0.14289
G1 X80.126 Y71.299 E0.15324
G1 X80.793 Y70.795 E0.17305
G1 X81.524 Y70.258 E0.19455
G1 X81.723 Y70.115 E0.20036
G1 X82.105 Y69.849 E0.21139
G1 X82.809 Y69.372 E0.23154
G1 X83.535 Y68.892 E0.25217
G1 X83.759 Y68.748 E0.25848
G1 X84.168 Y68.492 E0.26991
G1 X84.912 Y68.039 E0.29055
G1 X85.565 Y67.653 E0.30853
G1 X85.785 Y67.526 E0.31455
G1 X86.273 Y67.254 E0.32779
G1 X86.988 Y66.866 E0.34707
G1 X87.711 Y66.485 E0.36643
G1 X87.965 Y66.356 E0.37318
G1 X88.458 Y66.113 E0.38621
G1 X89.104 Y65.803 E0.40319
G1 X89.966 Y65.402 E0.42572
G1 X90.227 Y65.285 E0.4325
G1 X90.638 Y65.108 E0.4431
G1 X91.394 Y64.79 E0.46254
G1 X92.181 Y64.471 E0.48266
G1 X92.424 Y64.376 E0.48884
G1 X92.885 Y64.203 E0.50051
G1 X93.626 Y63.936 E0.51918
G1 X94.5 Y63.632 E0.54111
G1 X94.74 Y63.551 E0.54711
G1 X95.217 Y63.399 E0.55897
G1 X95.972 Y63.168 E0.57769
G1 X96.769 Y62.933 E0.59738
G1 X97.049 Y62.854 E0.60427
G1 X97.539 Y62.725 E0.61628
G1 X98.326 Y62.526 E0.63552
G1 X99.171 Y62.324 E0.6561
G1 X99.416 Y62.268 E0.66206
G1 X99.987 Y62.146 E0.6759
G1 X100.682 Y62.008 E0.69269
G1 X101.565 Y61.842 E0.71398
G1 X101.847 Y61.793 E0.72076
G1 X102.32 Y61.717 E0.73212
G1 X103.07 Y61.605 E0.75009
G1 X103.982 Y61.481 E0.7719
G1 X104.237 Y61.449 E0.77799
G1 X104.736 Y61.394 E0.78988
G1 X105.529 Y61.316 E0.80877
G1 X106.393 Y61.242 E0.82932
G1 X106.673 Y61.222 E0.83597
G1 X107.18 Y61.192 E0.84801
G1 X107.941 Y61.155 E0.86606
G1 X108.836 Y61.122 E0.88729
G1 X109.129 Y61.115 E0.89423
G1 X109.442 Y61.112 E0.90165
G1 X110.244 Y61.112 E0.92065
G1 X111.263 Y61.125 E0.9448
G1 X111.535 Y61.132 E0.95125
G1 X112.046 Y61.153 E0.96337
G1 X112.808 Y61.193 E0.98145
G1 X113.69 Y61.249 E1.0024
G1 X113.98 Y61.271 E1.00929
G1 X114.505 Y61.319 E1.02178
G1 X115.231 Y61.392 E1.03908
G1 X116.114 Y61.492 E1.06013
G1 X116.412 Y61.53 E1.06725
G1 X116.88 Y61.597 E1.07846
G1 X117.704 Y61.723 E1.09821
G1 X118.572 Y61.867 E1.11906
G1 X118.819 Y61.911 E1.12501
G1 X119.292 Y62.001 E1.13642
G1 X120.068 Y62.159 E1.15518
G1 X120.92 Y62.344 E1.17585
G1 X121.16 Y62.399 E1.18168
G1 X121.666 Y62.522 E1.19402
G1 X122.452 Y62.723 E1.21325
G1 X123.319 Y62.958 E1.23453
G1 X123.563 Y63.027 E1.24054
G1 X124.051 Y63.173 E1.25261
G1 X124.775 Y63.398 E1.27058
G1 X125.67 Y63.689 E1.29288
G1 X125.908 Y63.769 E1.29883
G1 X126.267 Y63.896 E1.30786
G1 X127.047 Y64.18 E1.32753
G1 X127.938 Y64.519 E1.35012
G1 X128.148 Y64.601 E1.35546
G1 X128.594 Y64.783 E1.36688
G1 X129.394 Y65.122 E1.38747
G1 X130.152 Y65.454 E1.40708
G1 X130.409 Y65.571 E1.41377
G1 X130.839 Y65.774 E1.42504
G1 X131.562 Y66.123 E1.44406
G1 X132.358 Y66.52 E1.46514
G1 X132.604 Y66.647 E1.4717
G1 X133.005 Y66.861 E1.48248
G1 X133.718 Y67.25 E1.50172
G1 X134.466 Y67.671 E1.52206
G1 X134.717 Y67.817 E1.52895
G1 X135.189 Y68.1 E1.54199
G1 X135.805 Y68.478 E1.55911
G1 X136.619 Y68.993 E1.58194
G1 X137.08 Y69.295 E1.595
G1 X137.779 Y69.77 E1.61503
G1 X138.562 Y70.319 E1.63769
G1 X138.781 Y70.477 E1.64409
G1 X139.2 Y70.788 E1.65646
G1 X139.843 Y71.277 E1.6756
G1 X140.493 Y71.784 E1.69513
G1 X140.692 Y71.943 E1.70117
G1 X141.149 Y72.318 E1.71518
G1 X141.701 Y72.782 E1.73227
G1 X142.414 Y73.399 E1.75461
G1 X142.62 Y73.582 E1.76114
G1 X142.97 Y73.902 E1.77238
G1 X143.504 Y74.399 E1.78967
G1 X144.169 Y75.032 E1.81143
G1 X144.385 Y75.243 E1.81858
G1 X144.731 Y75.592 E1.83023
G1 X145.271 Y76.147 E1.84858
G1 X145.883 Y76.793 E1.86967
G1 X146.04 Y76.962 E1.87513
G1 X146.348 Y77.303 E1.88602
G1 X146.932 Y77.967 E1.90698
G1 X147.484 Y78.611 E1.92708
G1 X147.666 Y78.829 E1.93381
G1 X147.956 Y79.187 E1.94473
G1 X148.465 Y79.825 E1.96407
G1 X149.005 Y80.522 E1.98496
G1 X149.167 Y80.737 E1.99134
G1 X149.439 Y81.107 E2.00222
G1 X149.96 Y81.834 E2.02342
G1 X150.441 Y82.525 E2.04337
G1 X150.595 Y82.752 E2.04987
G1 X150.817 Y83.09 E2.05946
G1 X151.271 Y83.795 E2.07933
G1 X151.722 Y84.513 E2.09942
G1 X151.875 Y84.765 E2.10641
G1 X152.153 Y85.236 E2.11937
G1 X152.54 Y85.908 E2.13774
G1 X152.952 Y86.645 E2.15775
G1 X153.081 Y86.882 E2.16415
G1 X153.329 Y87.354 E2.17678
G1 X153.66 Y88.001 E2.19401
G1 X154.089 Y88.867 E2.21691
G1 X154.208 Y89.116 E2.22345
G1 X154.365 Y89.455 E2.2323
G1 X154.746 Y90.303 E2.25433
G1 X155.071 Y91.053 E2.2737
G1 X155.172 Y91.294 E2.2799
G1 X155.348 Y91.731 E2.29106
G1 X155.667 Y92.546 E2.3118
G1 X155.957 Y93.319 E2.33137
G1 X156.148 Y93.856 E2.34487
G1 X156.421 Y94.664 E2.36508
G1 X156.734 Y95.637 E2.38931
G1 X156.809 Y95.884 E2.39542
G1 X156.967 Y96.423 E2.40873
G1 X157.17 Y97.152 E2.42667
G1 X157.393 Y97.992 E2.44726
G1 X157.454 Y98.23 E2.45308
G1 X157.575 Y98.737 E2.46544
G1 X157.747 Y99.498 E2.48393
G1 X157.922 Y100.31 E2.50361
G1 X157.983 Y100.614 E2.51096
G1 X158.081 Y101.148 E2.52382
G1 X158.213 Y101.9 E2.54192
G1 X158.353 Y102.762 E2.56261
G1 X158.395 Y103.044 E2.56937
G1 X158.448 Y103.441 E2.57886
G1 X158.553 Y104.279 E2.59887
G1 X158.656 Y105.21 E2.62107
G1 X158.683 Y105.488 E2.62769
G1 X158.718 Y105.903 E2.63756
G1 X158.77 Y106.592 E2.65393
G1 X158.833 Y107.63 E2.67858
G1 X158.846 Y107.885 E2.68463
G1 X158.863 Y108.36 E2.69589
G1 X158.88 Y109.03 E2.71177
G1 X158.891 Y110.07 E2.73642
G1 X158.891 Y110.334 E2.74268
G1 X158.884 Y110.779 E2.75323
G1 X158.864 Y111.59 E2.77245
G1 X158.83 Y112.462 E2.79313
G1 X158.816 Y112.735 E2.79961
G1 X158.784 Y113.215 E2.81101
G1 X158.72 Y114.054 E2.83095
G1 X158.641 Y114.939 E2.852
G1 X158.615 Y115.203 E2.85829
G1 X158.568 Y115.603 E2.86784
G1 X158.461 Y116.453 E2.88814
G1 X158.336 Y117.345 E2.90948
G1 X158.297 Y117.603 E2.91567
G1 X158.212 Y118.109 E2.92783
G1 X158.073 Y118.893 E2.94669
G1 X157.922 Y119.688 E2.96587
G1 X157.865 Y119.969 E2.97267
G1 X157.762 Y120.439 E2.98407
G1 X157.559 Y121.326 E3.00563
G1 X157.356 Y122.154 E3.02583
G1 X157.222 Y122.662 E3.03828
G1 X157.005 Y123.438 E3.05738
G1 X156.7 Y124.471 E3.0829
G1 X156.617 Y124.737 E3.08951
G1 X156.468 Y125.194 E3.1009
G1 X156.214 Y125.946 E3.11971
G1 X155.918 Y126.787 E3.14084
G1 X155.838 Y127.008 E3.14641
G1 X155.675 Y127.437 E3.15728
G1 X155.369 Y128.213 E3.17705
G1 X155.022 Y129.061 E3.19876
G1 X154.927 Y129.286 E3.20455
G1 X154.751 Y129.689 E3.21497
G1 X154.396 Y130.472 E3.23535
G1 X154.039 Y131.235 E3.25531
G1 X153.922 Y131.476 E3.26166
G1 X153.672 Y131.976 E3.2749
G1 X153.312 Y132.674 E3.29352
G1 X152.916 Y133.42 E3.31353
G1 X152.785 Y133.659 E3.31999
G1 X152.516 Y134.135 E3.33295
G1 X152.14 Y134.786 E3.35076
G1 X151.701 Y135.521 E3.37105
G1 X151.564 Y135.744 E3.37725
G1 X151.243 Y136.252 E3.39149
G1 X150.859 Y136.844 E3.40821
G1 X150.328 Y137.639 E3.43087
G1 X150.07 Y138.013 E3.44164
G1 X149.464 Y138.857 E3.46626
G1 X148.939 Y139.565 E3.48715
G1 X148.781 Y139.773 E3.49334
G1 X148.462 Y140.181 E3.50561
G1 X147.976 Y140.789 E3.52406
G1 X147.413 Y141.474 E3.54507
G1 X147.251 Y141.666 E3.55102
G1 X146.929 Y142.038 E3.56268
G1 X146.368 Y142.673 E3.58276
G1 X145.802 Y143.296 E3.60271
G1 X145.422 Y143.699 E3.61583
G1 X144.827 Y144.312 E3.63608
G1 X144.091 Y145.044 E3.66068
G1 X143.925 Y145.206 E3.66618
G1 X143.566 Y145.546 E3.67789
G1 X142.904 Y146.16 E3.69929
G1 X142.295 Y146.707 E3.71869
G1 X142.111 Y146.869 E3.7245
G1 X141.759 Y147.17 E3.73547
G1 X141.099 Y147.723 E3.75588
G1 X140.467 Y148.238 E3.7752
G1 X139.955 Y148.638 E3.7906
G1 X139.345 Y149.102 E3.80876
G1 X138.488 Y149.733 E3.83398
G1 X138.268 Y149.891 E3.8404
G1 X137.891 Y150.153 E3.85128
G1 X137.186 Y150.632 E3.87148
G1 X136.459 Y151.112 E3.89212
G1 X136.259 Y151.241 E3.89776
G1 X135.849 Y151.498 E3.90923
G1 X135.089 Y151.961 E3.93032
G1 X134.448 Y152.34 E3.94796
G1 X134.215 Y152.474 E3.95433
G1 X133.707 Y152.756 E3.9681
G1 X133.013 Y153.133 E3.98682
G1 X132.23 Y153.545 E4.00779
G1 X131.987 Y153.669 E4.01425
G1 X131.633 Y153.843 E4.0236
G1 X130.822 Y154.233 E4.04492
G1 X130.094 Y154.571 E4.06394
G1 X129.851 Y154.68 E4.07026
G1 X129.356 Y154.895 E4.08305
G1 X128.621 Y155.203 E4.10193
G1 X127.804 Y155.534 E4.12282
G1 X127.532 Y155.64 E4.12974
G1 X127.106 Y155.799 E4.14051
G1 X126.362 Y156.068 E4.15926
G1 X125.476 Y156.376 E4.18149
G1 X125.212 Y156.464 E4.18809
G1 X124.823 Y156.588 E4.19776
G1 X124.209 Y156.778 E4.21299
G1 X123.185 Y157.079 E4.23829
G1 X122.924 Y157.153 E4.24471
G1 X122.478 Y157.271 E4.25565
G1 X121.831 Y157.436 E4.27147
G1 X120.829 Y157.676 E4.29589
G1 X120.584 Y157.732 E4.30184
G1 X120.013 Y157.854 E4.31568
G1 X119.444 Y157.968 E4.32943
G1 X118.452 Y158.154 E4.35335
G1 X118.184 Y158.201 E4.3598
G1 X117.641 Y158.288 E4.37283
G1 X116.868 Y158.404 E4.39135
G1 X116.053 Y158.515 E4.41085
G1 X115.797 Y158.546 E4.41696
G1 X115.212 Y158.611 E4.4309
G1 X114.47 Y158.684 E4.44857
G1 X113.605 Y158.758 E4.46915
G1 X113.337 Y158.777 E4.47551
G1 X112.845 Y158.807 E4.4872
G1 X112.125 Y158.843 E4.50428
G1 X111.164 Y158.877 E4.52707
G1 X110.907 Y158.883 E4.53316
G1 X110.426 Y158.888 E4.54456
G1 X109.598 Y158.887 E4.56418
G1 X108.726 Y158.875 E4.58485
G1 X108.433 Y158.867 E4.59179
G1 X107.976 Y158.848 E4.60263
G1 X107.331 Y158.816 E4.61794
G1 X106.274 Y158.748 E4.64304
G1 X106.022 Y158.729 E4.64902
G1 X105.532 Y158.685 E4.66068
G1 X104.769 Y158.608 E4.67886
G1 X103.886 Y158.508 E4.69992
G1 X103.584 Y158.469 E4.70713
G1 X103.124 Y158.403 E4.71814
G1 X102.301 Y158.278 E4.73787
G1 X101.412 Y158.131 E4.75923
G1 X101.132 Y158.081 E4.76597
G1 X100.768 Y158.01 E4.77475
G1 X99.923 Y157.839 E4.79518
G1 X99.089 Y157.659 E4.8154
G1 X98.806 Y157.594 E4.82228
G1 X98.301 Y157.47 E4.83461
G1 X97.552 Y157.277 E4.85294
G1 X96.689 Y157.044 E4.87412
G1 X96.415 Y156.967 E4.88087
G1 X95.963 Y156.831 E4.89205
G1 X95.234 Y156.605 E4.91014
G1 X94.383 Y156.329 E4.93134
G1 X94.122 Y156.241 E4.93787
G1 X93.619 Y156.062 E4.95052
G1 X92.911 Y155.804 E4.96838
G1 X92.074 Y155.486 E4.98959
G1 X91.826 Y155.389 E4.9959
G1 X91.384 Y155.207 E5.00723
G1 X90.64 Y154.892 E5.02638
G1 X89.865 Y154.553 E5.04642
G1 X89.601 Y154.433 E5.0533
G1 X89.14 Y154.216 E5.06537
G1 X88.425 Y153.871 E5.08419
G1 X87.628 Y153.473 E5.1053
G1 X87.144 Y153.22 E5.11824
G1 X86.41 Y152.821 E5.13804
G1 X85.515 Y152.319 E5.16235
G1 X85.256 Y152.168 E5.16946
G1 X84.84 Y151.918 E5.18096
G1 X84.206 Y151.53 E5.19858
G1 X83.43 Y151.042 E5.2203
G1 X83.162 Y150.868 E5.22787
G1 X82.801 Y150.625 E5.23818
G1 X82.137 Y150.171 E5.25725
G1 X81.417 Y149.665 E5.2781
G1 X81.191 Y149.502 E5.2847
G1 X80.82 Y149.226 E5.29566
G1 X80.129 Y148.702 E5.31621
G1 X79.483 Y148.198 E5.33563
G1 X78.973 Y147.783 E5.35121
G1 X78.266 Y147.189 E5.37309
G1 X77.624 Y146.635 E5.39319
G1 X77.412 Y146.447 E5.3999
G1 X77.038 Y146.106 E5.4119
G1 X76.489 Y145.596 E5.42966
G1 X75.825 Y144.963 E5.4514
G1 X75.628 Y144.77 E5.45793
G1 X75.26 Y144.4 E5.4703
G1 X74.735 Y143.86 E5.48815
G1 X74.122 Y143.214 E5.50925
G1 X73.951 Y143.03 E5.5152
G1 X73.625 Y142.667 E5.52676
G1 X73.069 Y142.035 E5.54671
G1 X72.516 Y141.39 E5.56685
G1 X72.347 Y141.188 E5.57309
G1 X72.042 Y140.813 E5.58454
G1 X71.527 Y140.167 E5.60412
G1 X70.988 Y139.47 E5.625
G1 X70.823 Y139.251 E5.6315
G1 X70.55 Y138.878 E5.64245
G1 X70.189 Y138.377 E5.65709
G1 X69.557 Y137.472 E5.68325
G1 X69.402 Y137.245 E5.68976
G1 X69.178 Y136.904 E5.69943
G1 X68.708 Y136.174 E5.72
G1 X68.268 Y135.471 E5.73966
G1 X68.123 Y135.233 E5.74626
G1 X67.855 Y134.778 E5.75877
G1 X67.455 Y134.085 E5.77774
G1 X67.036 Y133.334 E5.79812
G1 X66.905 Y133.092 E5.80464
G1 X66.669 Y132.64 E5.81672
G1 X66.344 Y132.005 E5.83363
G1 X65.913 Y131.136 E5.85661
G1 X65.781 Y130.86 E5.86386
G1 X65.629 Y130.529 E5.87249
G1 X65.256 Y129.701 E5.89402
G1 X64.931 Y128.952 E5.91336
G1 X64.834 Y128.721 E5.9193
G1 X64.651 Y128.268 E5.93088
G1 X64.331 Y127.452 E5.95165
G1 X64.037 Y126.668 E5.97149
G1 X63.832 Y126.087 E5.98609
G1 X63.585 Y125.353 E6.00445
G1 X63.267 Y124.364 E6.02906
G1 X63.081 Y123.741 E6.04447
G1 X62.863 Y122.972 E6.06341
G1 X62.611 Y122.023 E6.08668
G1 X62.551 Y121.785 E6.0925
G1 X62.422 Y121.246 E6.10563
G1 X62.253 Y120.502 E6.12371
G1 X62.078 Y119.69 E6.1434
G1 X62.017 Y119.386 E6.15075
G1 X61.918 Y118.849 E6.16369
G1 X61.787 Y118.101 E6.18168
G1 X61.647 Y117.24 E6.20235
G1 X61.605 Y116.958 E6.20911
G1 X61.544 Y116.503 E6.21999
G1 X61.447 Y115.717 E6.23876
G1 X61.341 Y114.757 E6.26164
G1 X61.315 Y114.496 E6.26786
G1 X61.283 Y114.108 E6.27709
G1 X61.223 Y113.289 E6.29655
G1 X61.169 Y112.416 E6.31727
G1 X61.155 Y112.144 E6.32373
G1 X61.135 Y111.563 E6.33751
G1 X61.119 Y110.835 E6.35476
G1 X61.109 Y109.963 E6.37543
G1 X61.109 Y109.686 E6.38199
G1 X61.118 Y109.142 E6.39489
G1 X61.137 Y108.435 E6.41165
G1 X61.172 Y107.515 E6.43346
G1 X61.186 Y107.237 E6.44006
G1 X61.218 Y106.745 E6.45174
G1 X61.281 Y105.932 E6.47107
G1 X61.358 Y105.067 E6.49165
G1 X61.385 Y104.8 E6.49801
G1 X61.436 Y104.365 E6.50839
G1 X61.539 Y103.549 E6.52788
G1 X61.664 Y102.656 E6.54925
G1 X61.704 Y102.392 E6.55557
G1 X61.788 Y101.891 E6.56761
G1 X61.929 Y101.098 E6.5867
G1 X62.087 Y100.27 E6.60668
G1 X62.138 Y100.016 E6.61281
G1 X62.238 Y99.559 E6.6239
G1 X62.43 Y98.719 E6.64432
G1 X62.632 Y97.888 E6.66459
G1 X62.707 Y97.596 E6.67173
G1 X62.823 Y97.173 E6.68213
G1 X63.047 Y96.381 E6.70163
G1 X63.3 Y95.528 E6.72271
G1 X63.377 Y95.278 E6.72891
G1 X63.526 Y94.821 E6.7403
G1 X63.786 Y94.053 E6.75952
G1 X64.082 Y93.212 E6.78065
G1 X64.171 Y92.967 E6.78683
G1 X64.336 Y92.535 E6.79778
G1 X64.638 Y91.77 E6.81727
G1 X64.976 Y90.943 E6.83845
G1 X65.074 Y90.71 E6.84444
G1 X65.252 Y90.304 E6.85494
G1 X65.538 Y89.669 E6.87145
G1 X65.966 Y88.755 E6.89536
G1 X66.073 Y88.533 E6.9012
G1 X66.326 Y88.025 E6.91465
G1 X66.591 Y87.508 E6.92842
G1 X67.103 Y86.544 E6.95429
G1 X67.224 Y86.323 E6.96026
G1 X67.447 Y85.928 E6.97101
G1 X67.855 Y85.222 E6.99033
G1 X68.312 Y84.457 E7.01145
G1 X68.443 Y84.244 E7.01737
G1 X68.709 Y83.822 E7.02919
G1 X69.151 Y83.14 E7.04845
G1 X69.655 Y82.384 E7.06999
G1 X69.988 Y81.905 E7.08381
G1 X70.448 Y81.264 E7.10251
G1 X71.057 Y80.441 E7.12677
G1 X71.219 Y80.227 E7.13313
G1 X71.536 Y79.822 E7.14532
